!!!ONB: MCCC : IAD0035_09 : Extracted Monophonic Melody
!!!COM: Dvořák, Antonín
!!!OPR: Legends
!!!OMV: 9
!!!SCT: Op.59 ; B.117 (piano duet), B.122 (orchestra)
!!!ODT: 1881///
**kern
*staff1
=1
*clefG2
*k[f#c#]
*D:
*M3/4
4ddd
8aa
8bb
8aa
8ff#
=2
8.aa
16gg
8ff#
8gg
8ff#
8dd
=3
8.ff#
16ee
8ff#
16.gg
32ff#
4aa
=4
8.ff#
16gg
2aa
=5
4ddd
2ddd
=6
4ddd
4.ddd
8fff#
=7
4.aaa
8ggg
8fff#
8ddd
=8
8.aa
16ccc#
2ddd
=9
2.r
=10
2.r
=11
2.r
=12
2.r
=13
4ddd
8aa
8bb
8aa
8ff#
=14
8.aa
16gg
8ff#
8gg
8ff#
8dd
=15
8.ff#
16ee
8ff#
16.gg
32ff#
4aa
=16
8.aa
16ccc#
2ddd
=17
8ddd
8dddd
8aaa
8bbb
8aaa
8fff#
=18
8.aaa
16ggg
8fff#
8ggg
8fff#
8ddd
=19
8.fff#
16eee
8fff#
16.ggg
32fff#
4aaa
=20
8.fff#
16ggg
2aaa
=21
4ddd
2ddd
=22
4ddd
4.ddd
8fff#
=23
8aa
4aaa
8ggg
8fff#
8ddd
=24
8.aa
16ccc#
2ddd
=25
8aa
4aaa
8ggg
8fff#
8ddd
=26
8.aa
16ccc#
2ddd
=27
8.aa
16ccc#
2ddd
=28
8.aa
16ccc#
2ddd
=29
8r
8dd
8aa
8ddd
8aa
8dd
=30
4aa
4dd
4r
=31
8r
8dd
8aa
8ddd
8aa
8dd
=32
4aa
4dd
4r
=33
8r
8aa
8ccc
8aaa
8ccc
8aa
=34
4ccc
4aa
4r
=35
8r
8aa
8ccc
8aaa
8ccc
8aa
=36
4ccc
4aa
4r
=37
8r
8aa
2ddd
=38
8r
8aa
2ddd
=39
8r
8aa
2ddd
=40
8r
8aa
2ddd
=41
4ddd
8aa
8bb
8aa
8ff#
=42
8.aa
16gg
8ff#
8gg
8ff#
8dd
=43
4ddd
8aa
8bb
8aa
8ff#
=44
8.aa
16gg
8ff#
8gg
8ff#
8dd
=45
4ddd#
8ccc
8ddd
8ccc
8aa
=46
4ddd#
8ccc
8ddd
8ccc
8aa
=47
4ggg
4aa#
4ccc#
=48
4ddd#
4aa#
4ccc#
=49
4ddd#
4aa#
4ccc#
=50
4ddd#
4fff
4ggg
=51
2.ggg#
=52
2.aaa
=53
2.aaa[
=54
2.aaa]
=55
8eee
8aaa
8eee
8fff#
8eee
8aa
=56
4eee
4ccc#
4ccc#
=57
4ee
8ee
8ff#
8ee
8a
=58
4ee
2cc#
=59
2.a
=60
2.a
=61
4ddd
8aa
8bb
8aa
8ff#
=62
8.aa
16gg
8ff#
8gg
8ff#
8dd
=63
8.ff#
16ee
8ff#
16.gg
32ff#
4aa
=64
8.ff#
16gg
2aa
=65
4ddd
2ddd
=66
4ddd
4.ddd
8fff#
=67
4.aaa
8ggg
8fff#
8ddd
=68
8.aa
16ccc#
2ddd
=69
2.r
=70
2.r
=71
2.r
=72
2.r
=73
4ddd
8aa
8bb
8aa
8ff#
=74
8.aa
16gg
8ff#
8gg
8ff#
8dd
=75
8.ff#
16ee
8ff#
16.gg
32ff#
4aa
=76
8.aa
16ccc#
2ddd
=77
8ddd
8dddd
8aaa
8bbb
8aaa
8fff#
=78
8.aaa
16ggg
8fff#
8ggg
8fff#
8ddd
=79
8.fff#
16eee
8fff#
16.ggg
32fff#
4aaa
=80
8.fff#
16ggg
2aaa
=81
4ddd
2ddd
=82
4ddd
4.ddd
8fff#
=83
8aa
4aaa
8ggg
8fff#
8ddd
=84
8.aa
16ccc#
2ddd
=85
8aa
4aaa
8ggg
8fff#
8ddd
=86
8.aa
16ccc#
2ddd
=87
8.aa
16ccc#
2ddd
=88
8.aa
16ccc#
2ddd
==
*-
